svg/flask-alt.svg

<svg xmlns="http://www.w3.org/2000/svg" viewBox="0 0 42 63" enable-background="new 0 0 42 63"><style type="text/css">.st0{fill:#343434;}</style><title>flask-alt</title><desc>Created with Sketch.</desc><path class="st0" d="M29 22.6v-14.6c1.1 0 2-.9 2-2v-4c0-1.1-.9-2-2-2h-16c-1.1 0-2 .9-2 2v4c0 1.1.9 2 2 2v14.6c-7.6 3.1-13 10.6-13 19.4 0 11.6 9.4 21 21 21s21-9.4 21-21c0-8.8-5.4-16.3-13-19.4zm-15-19.6h14v2h-14v-2zm7 56c-9.4 0-17-7.6-17-17 0-8 5.5-14.7 13-16.5v-17.5h8v17.5c7.5 1.8 13 8.5 13 16.5 0 9.4-7.6 17-17 17zM33.2 36h-24.4c-1.1 2-1.8 4.4-1.8 7 0 7 6.3 13 14 13s14-6 14-13c0-2.6-.7-5-1.8-7z"/></svg>

<svg xmlns="http://www.w3.org/2000/svg" viewBox="0 0 42 63"><path d="M29 22.6V8c1.1 0 2-.9 2-2V2c0-1.1-.9-2-2-2H13c-1.1 0-2 .9-2 2v4c0 1.1.9 2 2 2v14.6C5.4 25.7 0 33.2 0 42c0 11.6 9.4 21 21 21s21-9.4 21-21c0-8.8-5.4-16.3-13-19.4zM14 3h14v2H14V3zm7 56c-9.4 0-17-7.6-17-17 0-8 5.5-14.7 13-16.5V8h8v17.5C32.5 27.3 38 34 38 42c0 9.4-7.6 17-17 17zm12.2-23H8.8C7.7 38 7 40.4 7 43c0 7 6.3 13 14 13s14-6 14-13c0-2.6-.7-5-1.8-7z" fill="#343434"/></svg>
